!!!OTL: Die verkaufte M&uuml;llerin (12a), S. 53
!!!id: T0118
**kern
*clefG2
*k[]
*G:
{4d
=1
4g
4g
4a
4a
=2
4b
8b
8a
4g}
=3
{4g
=4
4b
4a
4b
4cc
=5
4dd
8dd
8cc
4b}
=6
{4dd
=7
4ee
4dd
4cc
4b
=8
4.b
8a
4a}
=9
{4dd
=10
4ee
4dd
4cc
4b
=11
4.b
8a
4a}
==
*-
!!!minrhy: 8
!!!meters: 4/4 ]  ZZ[4
!!!cut: Die verkaufte M&uuml;llerin (12a), S. 53
!!!reg: Luxemburg
!!!trd: Singendes Volk, Esch-Alzette 1937 posth.
!!!rhy1: X_  X_X_X_X_  X_XXX_
!!!rhy2: X_  X_X_X_X_  X_XXX_
!!!key: T0118  08  G 4/4 ]  ZZ[4
!!!mod: SECHSTONSKALA DUR ?]  AMBITUS[9
!!!kad: 1322
!!!akz: 1231_3353_6432_6432_
!!!fot: 'a__b__c__c__
!!!for: 'a__a__b__b__
!!!fok: '^a_^a_\__\__
!! PHRAS[AUFTAKTIG]
!!!fkt: "erz&auml;hlende Lieder"
!!!bem: STRASSEN; gesungen von Frau Witry am 3.1.1933
!! THILL, Mathias:
!! PR[26] 2K[6] 2G[16] 3K[3] 3G[6] 4A[3] 4Ü[0] 5A[0] 6K[0] 6G[0]
!! 7K[0] 7G[0] 8A[0] MEHR[0] SI[35] ABS[31] SR[23] SP[13]
!! ST[8] 2k[6] 2g[29] 3k[3] 3g[0] 4d[0] 4ü[0] 5d[0] 6k[0] 6g[0]
!! 7k[0] 7g[0] 8d[0] mehr[0] si[39] dm[-4] sr[35] sp[3]
!! 1F[12] 2F[88] 3F[0] 4F[0] LF[0] 2P[0] 3P[0] 4P[0] TRI[0] DF[2] AB[34]
!! TF[0] U3K[0] U3[0] U4[0] U4Ü[0] U5[3] U6K[0] U6[0] U7K[0] U7[0]
!! N1[13] N2K[0] N2[25] N3K[0] N3[28] N4[13] N4Ü[0] N5[13] N6K[0] N6[6]
!!!n7k: 0] N7[0] O1[0] O2K[0] O2[0] O3K[0] O3[0] HÖ[0
!!!RNB: symbol: &auml;      = a umlaut  (UTF-8: Å„)
!!!RNB: symbol: &uuml;  = u umlaut (UTF-8: Ã¼)
